!!!!SEGMENT: pl-wtm--r-1740-m--002-009_moniuszko-stanislaw--sonety-krymskie-epilog.krn
!!!cenid: 18xx:2926
!!!COM: Moniuszko, Stanisław
!!!COM-rismid: pe30008351
!!!CDT: 1819/05/05-1872/06/04
!!!CNT: Polish
!!!GTL: Sonety krymskie
!!!OTL: Epilog
!!!OMV: 009
!!!PDT:
!!!AGN: Secular; Sonnet
!!!SMS-siglum: PL-Wtm
!!!SMS-shelfmark: R 1740/M
!!!SMS-shelfwork: 002-009 G
!!!SMS-variant:
!!!SMS-altvar:
!!!NIFC-rismid: 1001096361
!!!URL-scan: http://repozytorium.nifc.pl/skany/pl-wtm-nut--r1740m
!!!ONB-nifc: UWAGA: Epilog zatytułowany jako No. 9. W zbiorze 2 aranżacje Sonetów. Pliki nr 001-001-010 w obsadzie vl (2), vla, vlc, cb, physharmonica, pf 4hands i pliki 002-001-009 na instrumenty dęte od skanu 0088.
**kern	**kern	**kern	**dynam	**kern	**kern	**dynam	**kern	**dynam	**kern	**kern	**dynam	**kern	**dynam	**kern	**dynam	**kern	**dynam	**kern	**dynam	**kern	**kern	**dynam
*part14	*part13	*part12	*part12	*part11	*part10	*part10	*part9	*part9	*part8	*part7	*part7	*part6	*part6	*part5	*part5	*part4	*part4	*part3	*part3	*part2	*part1	*part1
*staff14	*staff13	*staff12	*	*staff11	*staff10	*	*staff9	*	*staff8	*staff7	*	*staff6	*	*staff5	*	*staff4	*	*staff3	*	*staff2	*staff1	*
*Iempty	*Iempty	*Itimp	*	*Iempty	*Itromt	*	*Itromt	*	*Iempty	*Icor	*	*Icor	*	*Ifagot	*	*Iempty	*	*Ioboe	*	*Iempty	*Iflt	*
*I"[Gr Cassa Piatti]	*I"[Tambur]	*I"Timp.	*	*I"[Ophic.]	*I"Tromboni	*	*I"Tromboni	*	*I"[Tromba in a.]	*I"Corni. in F.	*	*I"in E Corni.	*	*I"Fag.	*	*I"in a. Clar.	*	*I"Oboi.	*	*I"[Pic.]	*I"Flauti.	*
*clefG2	*clefG2	*clefF4	*	*clefF4	*clefF4	*	*clefC4	*	*clefG2	*clefG2	*	*clefG2	*	*clefF4	*	*clefG2	*	*clefG2	*	*clefG2	*clefG2	*
*	*	*	*	*	*	*	*	*	*ITrd2c3	*ITrd4c7	*	*ITrd5c8	*	*	*	*ITrd2c3	*	*	*	*ITrd0c0	*	*
*k[f#c#g#]	*k[f#c#g#]	*k[]	*	*k[f#c#g#]	*k[f#c#g#]	*	*k[f#c#g#]	*	*k[f#c#g#]	*k[b-]	*	*k[f#c#g#d#]	*	*k[f#c#g#]	*	*k[f#c#g#]	*	*k[f#c#g#]	*	*k[f#c#g#]	*k[f#c#g#]	*
*F#:	*F#:	*F#:	*	*F#:	*F#:	*	*F#:	*	*F#:	*F#:	*	*F#:	*	*F#:	*	*F#:	*	*F#:	*	*F#:	*F#:	*
*	*	*	*	*	*	*	*	*	*	*	*	*	*	*	*	*	*	*	*	*	*	*
*M4/4	*M4/4	*M4/4	*	*M4/4	*M4/4	*	*M4/4	*	*M4/4	*M4/4	*	*M4/4	*	*M4/4	*	*M4/4	*	*M4/4	*	*M4/4	*M4/4	*
*met(c)	*met(c)	*met(c)	*	*met(c)	*met(c)	*	*met(c)	*	*met(c)	*met(c)	*	*met(c)	*	*met(c)	*	*met(c)	*	*met(c)	*	*met(c)	*met(c)	*
=1	=1	=1	=1	=1	=1	=1	=1	=1	=1	=1	=1	=1	=1	=1	=1	=1	=1	=1	=1	=1	=1	=1
!LO:TX:a:t=P:problem:brak instrumentu w partyturze	!LO:TX:a:t=P:problem:brak instrumentu w partyturze	!	!	!LO:TX:a:t=P:problem:brak instrumentu w partyturze	!	!	!	!	!	!	!	!	!	!	!	!	!	!LO:TX:a:t=P:problem:znak powtórzenia znaków przykluczowych	!	!LO:TX:a:t=P:problem:brak instrumentu w partyturze	!	!
!	!	!	!	!	!	!	!	!	!	!	!	!	!	!	!	!	!	!	!	!	!LO:TX:a:t=P:problem:all\left or right:global	!
!	!	!	!	!	!LO:TX:a:t=4	!	!	!	!	!	!	!LO:TX:b:t=P:problem:słowo "Corni." na środku akolady	!	!	!	!	!	!LO:TX:a:t=4	!	!	!LO:TX:a:t=P:problem:znaki przykluczowe: f# cc# g#	!
!	!	!	!	!	!	!	!	!	!LO:TX:t=P:problem:trudna do odczytu nazwa instrumentu	!LO:TX:b:t=4	!	!LO:TX:a:t=4	!	!	!	!	!	!	!	!	!LO:TX:B:i:a:t=Recit:color=blue	!
1ryy	1ryy	1ryy	.	1ryy	1ryy	.	1ryy	.	1ryy	1ryy	.	1r	.	1r	.	1ryy	.	1ryy	.	1ryy	1ryy	.
=2	=2	=2	=2	=2	=2	=2	=2	=2	=2	=2	=2	=2	=2	=2	=2	=2	=2	=2	=2	=2	=2	=2
1ryy	1ryy	1ryy	.	1ryy	1ryy	.	1ryy	.	1ryy	1ryy	.	1r	.	1r	.	1ryy	.	1ryy	.	1ryy	1ryy	.
=3	=3	=3	=3	=3	=3	=3	=3	=3	=3	=3	=3	=3	=3	=3	=3	=3	=3	=3	=3	=3	=3	=3
1ryy	1ryy	1ryy	.	1ryy	1ryy	.	1ryy	.	1ryy	1ryy	.	1r	.	1r	.	1ryy	.	1ryy	.	1ryy	1ryy	.
=4	=4	=4	=4	=4	=4	=4	=4	=4	=4	=4	=4	=4	=4	=4	=4	=4	=4	=4	=4	=4	=4	=4
1ryy	1ryy	1ryy	.	1ryy	1ryy	.	1ryy	.	1ryy	1ryy	.	1r	.	1r	.	1ryy	.	1ryy	.	1ryy	1ryy	.
=5	=5	=5	=5	=5	=5	=5	=5	=5	=5	=5	=5	=5	=5	=5	=5	=5	=5	=5	=5	=5	=5	=5
!	!	!	!	!	!	!	!	!	!	!	!	!	!	!	!	!	!	!	!	!	!LO:TX:a:B:i:t=a tempo\nModerato:color=blue	!
1ryy	1ryy	1ryy	.	1ryy	1ryy	.	1ryy	.	1ryy	1ryy	.	1ryy	.	1E 1EE	.	1ryy	.	1ryy	.	1ryy	1ryy	.
=6	=6	=6	=6	=6	=6	=6	=6	=6	=6	=6	=6	=6	=6	=6	=6	=6	=6	=6	=6	=6	=6	=6
*	*	*	*	*	*	*	*	*	*	*	*	*	*	*^	*	*	*	*	*	*	*	*
*	*	*	*	*	*	*	*	*	*	*	*	*	*	*2\right	*2\right	*	*	*	*	*	*	*	*
1ryy	1ryy	1ryy	.	1ryy	1ryy	.	1ryy	.	1ryy	1ryy	.	1ryy	.	(>2E/	2E\	.	1ryy	.	1ryy	.	1ryy	1ryy	.
.	.	.	.	.	.	.	.	.	.	.	.	.	.	4F#/	4F#\	.	.	.	.	.	.	.	.
.	.	.	.	.	.	.	.	.	.	.	.	.	.	4G#/)	4G#\	.	.	.	.	.	.	.	.
=7	=7	=7	=7	=7	=7	=7	=7	=7	=7	=7	=7	=7	=7	=7	=7	=7	=7	=7	=7	=7	=7	=7	=7
*	*	*	*	*	*	*	*	*	*	*	*	*^	*	*	*	*	*	*	*	*	*	*	*
1ryy	1ryy	1ryy	.	1ryy	1ryy	.	1ryy	.	1ryy	1ryy	.	1rdd	2re	.	1A	1A	.	1ryy	.	1ryy	.	1ryy	1ryy	.
.	.	.	.	.	.	.	.	.	.	.	.	.	4re	.	.	.	.	.	.	.	.	.	.	.
!	!	!	!	!	!	!	!	!	!	!	!	!	!	!LO:DY:b:rj	!	!	!	!	!	!	!	!	!	!
.	.	.	.	.	.	.	.	.	.	.	.	.	(<4E\	p	.	.	.	.	.	.	.	.	.	.
=8	=8	=8	=8	=8	=8	=8	=8	=8	=8	=8	=8	=8	=8	=8	=8	=8	=8	=8	=8	=8	=8	=8	=8	=8
*	*	*	*	*	*	*	*	*	*	*2\right	*	*2\right	*2\right	*	*	*	*	*	*	*	*	*	*	*
1ryy	1ryy	1ryy	.	1ryy	1ryy	.	1ryy	.	1ryy	1ryy	.	(>2.B/	2F#\	.	2A/	1D	.	1ryy	.	1ryy	.	1ryy	1ryy	.
.	.	.	.	.	.	.	.	.	.	.	.	.	2E\	.	2Gn/	.	.	.	.	.	.	.	.	.
.	.	.	.	.	.	.	.	.	.	.	.	4A/	.	.	.	.	.	.	.	.	.	.	.	.
=9	=9	=9	=9	=9	=9	=9	=9	=9	=9	=9	=9	=9	=9	=9	=9	=9	=9	=9	=9	=9	=9	=9	=9	=9
1ryy	1ryy	1ryy	.	1ryy	1ryy	.	1ryy	.	1ryy	1ryy	.	4F#/))	4F#\	.	1F#	1F#	.	1ryy	.	1ryy	.	1ryy	1ryy	.
.	.	.	.	.	.	.	.	.	.	.	.	4r	4ryy	.	.	.	.	.	.	.	.	.	.	.
.	.	.	.	.	.	.	.	.	.	.	.	2r	2ryy	.	.	.	.	.	.	.	.	.	.	.
*	*	*	*	*	*	*	*	*	*	*	*	*v	*v	*	*	*	*	*	*	*	*	*	*	*
*	*	*	*	*	*	*	*	*	*	*	*	*	*	*	*	*	*	*	*	*	*	*	*
=10	=10	=10	=10	=10	=10	=10	=10	=10	=10	=10	=10	=10	=10	=10	=10	=10	=10	=10	=10	=10	=10	=10	=10
*	*	*	*	*	*	*	*	*	*	*	*	*clefF4	*	*	*	*	*	*	*	*	*	*	*
1ryy	1ryy	1ryy	.	1ryy	1ryy	.	1ryy	.	1ryy	1ryy	.	(>[>1EE [>1EEE	.	4E/	4E\	.	1ryy	.	1ryy	.	1ryy	1ryy	.
.	.	.	.	.	.	.	.	.	.	.	.	.	.	4r	4ryy	.	.	.	.	.	.	.	.
.	.	.	.	.	.	.	.	.	.	.	.	.	.	2r	2ryy	.	.	.	.	.	.	.	.
*	*	*	*	*	*	*	*	*	*	*	*	*	*	*v	*v	*	*	*	*	*	*	*	*
=11	=11	=11	=11	=11	=11	=11	=11	=11	=11	=11	=11	=11	=11	=11	=11	=11	=11	=11	=11	=11	=11	=11
1ryy	1ryy	1ryy	.	1ryy	1ryy	.	1ryy	.	1ryy	1ryy	.	1EE_> 1EEE_>	.	1ryy	.	1ryy	.	1ryy	.	1ryy	1ryy	.
=12	=12	=12	=12	=12	=12	=12	=12	=12	=12	=12	=12	=12	=12	=12	=12	=12	=12	=12	=12	=12	=12	=12
1ryy	1ryy	1ryy	.	1ryy	1ryy	.	1ryy	.	1ryy	1ryy	.	1EE_> 1EEE_<	.	1ryy	.	1ryy	.	1ryy	.	1ryy	1ryy	.
=13	=13	=13	=13	=13	=13	=13	=13	=13	=13	=13	=13	=13	=13	=13	=13	=13	=13	=13	=13	=13	=13	=13
1ryy	1ryy	1ryy	.	1ryy	1ryy	.	1ryy	.	1ryy	1ryy	.	2EE] 2EEE/]	.	1ryy	.	1ryy	.	1ryy	.	1ryy	1ryy	.
.	.	.	.	.	.	.	.	.	.	.	.	2EE#X 2EEE#X/	.	.	.	.	.	.	.	.	.	.
!!LO:LB:g=original
=14	=14	=14	=14	=14	=14	=14	=14	=14	=14	=14	=14	=14	=14	=14	=14	=14	=14	=14	=14	=14	=14	=14
!	!	!	!	!	!	!	!	!	!	!	!	!LO:TX:a:t=P:problem:dwa łuki	!	!	!	!	!	!	!	!	!	!
1ryy	1ryy	1ryy	.	1ryy	1ryy	.	1ryy	.	1ryy	1ryy	.	4FF# 4FFF#/)	.	1ryy	.	1ryy	.	1ryy	.	1ryy	1ryy	.
.	.	.	.	.	.	.	.	.	.	.	.	4r	.	.	.	.	.	.	.	.	.	.
.	.	.	.	.	.	.	.	.	.	.	.	2r	.	.	.	.	.	.	.	.	.	.
=15	=15	=15	=15	=15	=15	=15	=15	=15	=15	=15	=15	=15	=15	=15	=15	=15	=15	=15	=15	=15	=15	=15
!	!	!	!	!	!LO:TX:b:t=6	!	!	!	!	!	!	!LO:TX:b:t=6	!	!	!	!	!	!LO:TX:b:t=6	!	!	!	!
1ryy	1ryy	1ryy	.	1ryy	1r	.	1r	.	1ryy	1ryy	.	1r	.	1r	.	1ryy	.	1r	.	1ryy	1r	.
=16	=16	=16	=16	=16	=16	=16	=16	=16	=16	=16	=16	=16	=16	=16	=16	=16	=16	=16	=16	=16	=16	=16
1ryy	1ryy	1ryy	.	1ryy	1r	.	1r	.	1ryy	1ryy	.	1r	.	1r	.	1ryy	.	1r	.	1ryy	1r	.
=17	=17	=17	=17	=17	=17	=17	=17	=17	=17	=17	=17	=17	=17	=17	=17	=17	=17	=17	=17	=17	=17	=17
1ryy	1ryy	1ryy	.	1ryy	1r	.	1r	.	1ryy	1ryy	.	1r	.	1r	.	1ryy	.	1r	.	1ryy	1r	.
=18	=18	=18	=18	=18	=18	=18	=18	=18	=18	=18	=18	=18	=18	=18	=18	=18	=18	=18	=18	=18	=18	=18
1ryy	1ryy	1ryy	.	1ryy	1r	.	1r	.	1ryy	1ryy	.	1r	.	1r	.	1ryy	.	1r	.	1ryy	1r	.
=19	=19	=19	=19	=19	=19	=19	=19	=19	=19	=19	=19	=19	=19	=19	=19	=19	=19	=19	=19	=19	=19	=19
1ryy	1ryy	1ryy	.	1ryy	1r	.	1r	.	1ryy	1ryy	.	1r	.	1r	.	1ryy	.	1r	.	1ryy	1r	.
=20	=20	=20	=20	=20	=20	=20	=20	=20	=20	=20	=20	=20	=20	=20	=20	=20	=20	=20	=20	=20	=20	=20
1ryy	1ryy	1ryy	.	1ryy	1r	.	1r	.	1ryy	1ryy	.	1r	.	1r	.	1ryy	.	1r	.	1ryy	1r	.
=21||	=21||	=21||	=21||	=21||	=21||	=21||	=21||	=21||	=21||	=21||	=21||	=21||	=21||	=21||	=21||	=21||	=21||	=21||	=21||	=21||	=21||	=21||
*k[f#c#g#d#a#e#]	*k[f#c#g#d#a#e#]	*k[]	*	*k[f#c#g#d#a#e#]	*k[f#c#g#d#a#e#]	*	*k[f#c#g#d#a#e#]	*	*k[f#c#g#]	*k[b-]	*	*k[f#c#g#d#]	*	*k[f#c#g#d#a#e#]	*	*k[f#c#g#d#a#e#]	*	*k[f#c#g#d#a#e#]	*	*k[f#c#g#d#a#e#]	*k[f#c#g#d#a#e#]	*
*	*	*	*	*	*	*	*	*	*	*	*	*	*	*	*	*2\right	*	*	*	*	*	*
*	*	*	*	*	*	*	*	*	*	*	*	*	*	*	*	*	*	*^	*	*	*	*
!	!	!LO:TX:i:a:t=Largo.	!	!	!LO:TX:a:t=P:problem:znaki przykluczowe: F#C#G#D#A#	!	!LO:TX:a:t=P:problem:znaki przykluczowe: F#c#G#d#A#	!	!	!	!	!	!	!LO:TX:a:t=P:problem:znaki przykluczowe:F#C#G#D#A#E#	!	!	!	!	!	!	!	!LO:TX:i:a:t=Largo.	!
!	!	!	!	!	!	!	!	!	!	!	!	!	!	!	!	!	!	!	!	!	!	!LO:TX:a:t=P:problem:znaki przykluczowe: f#cc#g#dd#a#ee#	!
!	!	!	!	!	!	!	!	!	!	!	!	!	!LO:DY:b:t=pp.:rj	!	!LO:DY:b:t=pp.:rj	!LO:TX:a:t=P:problem:znaki przykluczowe: f#cc#g#	!	!	!	!LO:DY:b:t=pp.:rj	!	!LO:TX:i:b:t=Flauto 2do	!
1ryy	1ryy	1ryy	.	1ryy	1ryy	.	1ryy	.	1ryy	1ryy	.	[>1FF# [<1FFF#	pp	[>1C# [>1AA#	pp	4r	.	2r	[>1c#	pp	1ryy	4r	.
.	.	.	.	.	.	.	.	.	.	.	.	.	.	.	.	8r	.	.	.	.	.	8r	.
!	!	!	!	!	!	!	!	!	!	!	!	!	!	!	!	!	!	!	!	!	!	!LO:S:s=1:note:problem:note-level slur	!
!	!	!	!	!	!	!	!	!	!	!	!	!	!	!	!	!	!	!	!	!	!	!LO:S:s=2:note:problem:note-level slur	!
.	.	.	.	.	.	.	.	.	.	.	.	.	.	.	.	(<8c# 8A#/	.	.	.	.	.	(>8cc# (>8a#\	.
!	!	!	!	!	!	!	!	!	!	!	!	!	!	!	!	!	!	!	!	!	!	!LO:S:s=1:note:problem:note-level slur	!
!	!	!	!	!	!	!	!	!	!	!	!	!	!	!	!	!	!	!	!	!LO:DY:b:rj	!	!LO:S:s=2:note:problem:note-level slur	!
.	.	.	.	.	.	.	.	.	.	.	.	.	.	.	.	4.a#/ 4.f#/)	.	[>2cc#/	.	pp	.	4.aa#) 4.ff#\)	.
!	!	!	!	!	!	!	!	!	!	!	!	!	!	!	!	!	!	!	!	!	!	!LO:S:s=1:note:problem:note-level slur	!
!	!	!	!	!	!	!	!	!	!	!	!	!	!	!	!	!	!	!	!	!	!	!LO:S:s=2:note:problem:note-level slur	!
.	.	.	.	.	.	.	.	.	.	.	.	.	.	.	.	(<8c# 8A#/	.	.	.	.	.	(>8cc# (>8a#\	.
*	*	*	*	*	*	*	*	*	*	*	*	*	*	*	*	*	*	*v	*v	*	*	*	*
=22	=22	=22	=22	=22	=22	=22	=22	=22	=22	=22	=22	=22	=22	=22	=22	=22	=22	=22	=22	=22	=22	=22
!	!	!	!	!	!	!	!	!	!	!	!	!	!	!	!	!	!	!	!	!	!LO:S:s=1:note:problem:note-level slur	!
!	!	!	!	!	!	!	!	!	!	!	!	!	!	!	!	!	!	!	!	!	!LO:S:s=2:note:problem:note-level slur	!
1ryy	1ryy	1ryy	.	1ryy	1ryy	.	1ryy	.	1ryy	1ryy	.	1FF#_> 1FFF#_<	.	1C#_> 1AA#_>	.	4.a# 4.f#/)	.	1cc#_> 1c#_>	.	1ryy	4.aa#) 4.ff#\)	.
.	.	.	.	.	.	.	.	.	.	.	.	.	.	.	.	(<8c# 8A#/	.	.	.	.	(>8cc# 8a#\	.
.	.	.	.	.	.	.	.	.	.	.	.	.	.	.	.	8a#L 8f#/)	.	.	.	.	8aa#L 8ff#\)	.
.	.	.	.	.	.	.	.	.	.	.	.	.	.	.	.	16r	.	.	.	.	16r	.
.	.	.	.	.	.	.	.	.	.	.	.	.	.	.	.	(<16c#K 16A#/	.	.	.	.	(>16cc#K 16a#\	.
.	.	.	.	.	.	.	.	.	.	.	.	.	.	.	.	8a# 8f#/)	.	.	.	.	8aa# 8ff#\)	.
.	.	.	.	.	.	.	.	.	.	.	.	.	.	.	.	16r	.	.	.	.	16r	.
.	.	.	.	.	.	.	.	.	.	.	.	.	.	.	.	16a#Jk 16f#/	.	.	.	.	16aa#Jk 16ff#\	.
=23	=23	=23	=23	=23	=23	=23	=23	=23	=23	=23	=23	=23	=23	=23	=23	=23	=23	=23	=23	=23	=23	=23
*	*	*	*	*	*	*	*	*	*	*	*	*	*	*	*	*	*	*	*	*	*2\right	*
1ryy	1ryy	1ryy	.	1ryy	1ryy	.	1ryy	.	1ryy	1ryy	.	2FF#_> 2FFF#/_<	.	2C#_> 2AA#/_>	.	[>2a# [<2f#/	.	2cc#_> 2c#/_<	.	1ryy	[>2aa# [>2ff#\	.
.	.	.	.	.	.	.	.	.	.	.	.	8FF#] 8FFF#/]	.	8C#] 8AA#/]	.	8a#] 8f#/]	.	8cc#] 8c#/]	.	.	8aa#] 8ff#\]	.
.	.	.	.	.	.	.	.	.	.	.	.	8r	.	8r	.	8r	.	8r	.	.	8r	.
.	.	.	.	.	.	.	.	.	.	.	.	4r	.	4r	.	4r	.	4r	.	.	4r	.
!!LO:PB:g=original
=24	=24	=24	=24	=24	=24	=24	=24	=24	=24	=24	=24	=24	=24	=24	=24	=24	=24	=24	=24	=24	=24	=24
!	!	!	!	!	!LO:TX:b:t=3	!	!LO:TX:a:t=3	!	!	!	!	!LO:TX:b:t=3	!	!LO:TX:a:t=3	!	!	!	!LO:TX:a:t=3	!	!	!	!
1ryy	1ryy	1ryy	.	1ryy	1r	.	1r	.	1r	1ryy	.	1r	.	1r	.	1r	.	1r	.	1ryy	1r	.
=25	=25	=25	=25	=25	=25	=25	=25	=25	=25	=25	=25	=25	=25	=25	=25	=25	=25	=25	=25	=25	=25	=25
1ryy	1ryy	1ryy	.	1ryy	1r	.	1r	.	1r	1ryy	.	1r	.	1r	.	1r	.	1r	.	1ryy	1r	.
=26	=26	=26	=26	=26	=26	=26	=26	=26	=26	=26	=26	=26	=26	=26	=26	=26	=26	=26	=26	=26	=26	=26
1ryy	1ryy	1ryy	.	1ryy	1r	.	1r	.	1r	1ryy	.	1r	.	1r	.	1r	.	1r	.	1ryy	1r	.
*	*	*	*	*	*	*	*	*	*	*	*	*	*	*	*	*	*	*	*	*	*	*
=27	=27	=27	=27	=27	=27	=27	=27	=27	=27	=27	=27	=27	=27	=27	=27	=27	=27	=27	=27	=27	=27	=27
*	*	*	*	*	*	*	*	*	*	*	*	*^	*	*^	*	*^	*	*	*	*	*	*
!	!	!	!	!	!	!	!	!	!	!	!	!LO:CL:ed	!	!	!	!	!	!	!	!	!	!	!	!	!
*	*	*	*	*	*	*	*	*	*	*	*	*clefG2	*	*	*	*	*	*	*	*	*	*	*	*	*
!	!	!	!	!	!	!	!	!	!	!	!	!LO:TX:t=P:problem:nieoznakowany powrót do klucza wiolinowego	!	!	!LO:TX:i:a:t=Fagotti	!	!	!	!	!	!	!	!	!	!
!	!	!	!	!	!	!	!	!	!	!	!	!	!	!	!LO:TX:b:t=(x):rj	!	!	!	!	!	!	!	!	!	!
1ryy	1ryy	1ryy	.	1ryy	1ryy	.	1r	.	1ryy	1ryy	.	4r	4ryy	.	4r	4ryy	.	4r	2.ryy	.	4r	.	1ryy	1ryy	.
!	!	!	!	!	!	!	!	!	!	!	!	!	!	!LO:DY:b:rj	!	!	!	!	!	!LO:DY:b:rj	!	!LO:DY:b:rj	!	!	!
.	.	.	.	.	.	.	.	.	.	.	.	8.B/L	8.B\L	f	8.G#/L	8.G#\L	.	8.bL 8.g#\	.	f	8.dd#L 8.f#/	f	.	.	.
.	.	.	.	.	.	.	.	.	.	.	.	16B/Jk	16B\Jk	.	16G#/Jk	16G#\Jk	.	16bJk 16g#\	.	.	16dd#Jk 16f#/	.	.	.	.
.	.	.	.	.	.	.	.	.	.	.	.	4B/	4B\	.	4c#/	4c#\	.	4b 4g#^>\	.	.	(>4ee# (<4e#^</	.	.	.	.
.	.	.	.	.	.	.	.	.	.	.	.	8.B/L	8.B\L	.	8.d#/L	8.d#\L	.	8.g#/L	8.g#\L	.	8.dd#L 8.d#/))	.	.	.	.
.	.	.	.	.	.	.	.	.	.	.	.	16B/Jk	16B\Jk	.	16c#/Jk	16c#\Jk	.	16g#/Jk	16g#\Jk	.	16cc#Jk 16e#/	.	.	.	.
*	*	*	*	*	*	*	*	*	*	*	*	*	*	*	*	*	*	*v	*v	*	*	*	*	*	*
=28	=28	=28	=28	=28	=28	=28	=28	=28	=28	=28	=28	=28	=28	=28	=28	=28	=28	=28	=28	=28	=28	=28	=28	=28
1ryy	1ryy	1ryy	.	1ryy	1ryy	.	1ryy	.	1ryy	1ryy	.	4.A#X/	4.A#\	.	4.c#/	4.c#\	.	(<4.cc# 4.f#/	.	(>4.cc# 4.f#/	.	1ryy	1ryy	.
.	.	.	.	.	.	.	.	.	.	.	.	8A#/	8A#\	.	8c#/	8c#\	.	8cc# 8f#/	.	8ff# 8f#/	.	.	.	.
*	*	*	*	*	*	*	*	*	*	*	*	*tremolo	*	*	*tremolo	*tremolo	*	*	*	*	*	*	*	*
!	!	!	!	!	!	!	!	!	!	!	!	!LO:TX:a:t=P:problem:4 kropki pod nutą	!	!	!LO:TX:a:t=P:problem:4 kropki nad nutą	!	!	!	!	!	!	!	!	!
!	!	!	!	!	!	!	!	!	!	!	!	!LO:TX:a:t=P:problem:łuk pod tremolem	!	!	!LO:TX:a:t=P:problem:łuk nad tremolem	!	!	!	!	!	!	!	!	!
.	.	.	.	.	.	.	.	.	.	.	.	(<8BL 8G#'</	2ryy	.	(>8c#'>/L	8c#\L	.	8cc#L 8e#'</	.	(>8ee#|<L 8e#/)	.	.	.	.
.	.	.	.	.	.	.	.	.	.	.	.	8B 8G#'</	.	.	8c#'>/	8c#\	.	8dd# 8e#'</	.	8dd#|< 8e#/	.	.	.	.
.	.	.	.	.	.	.	.	.	.	.	.	8B 8G#'</	.	.	8c#'>/	8c#\	.	8cc# 8e#'</	.	8cc#|< 8e#/	.	.	.	.
.	.	.	.	.	.	.	.	.	.	.	.	8BJ 8G#'</)	.	.	8c#'>/J)	8c#\J	.	8bJ 8e#'</)	.	8b|<J 8e#/)	.	.	.	.
*	*	*	*	*	*	*	*	*	*	*	*	*Xtremolo	*	*	*Xtremolo	*Xtremolo	*	*	*	*	*	*	*	*
*	*	*	*	*	*	*	*	*	*	*	*	*v	*v	*	*	*	*	*	*	*	*	*	*	*
=29	=29	=29	=29	=29	=29	=29	=29	=29	=29	=29	=29	=29	=29	=29	=29	=29	=29	=29	=29	=29	=29	=29	=29
1ryy	1ryy	1ryy	.	1ryy	1ryy	.	1ryy	.	1ryy	1ryy	.	4c# 4F#/	.	4c#/	4c#\	.	4a# 4f#/	.	[>4a# [<4f#/	.	1ryy	1ryy	.
.	.	.	.	.	.	.	.	.	.	.	.	4r	.	8r	8ryy	.	8r	.	8a#] 8f#/]	.	.	.	.
!	!	!	!	!	!	!	!	!	!	!	!	!	!	!	!	!LO:HP:a	!	!LO:HP:b	!	!	!	!	!
.	.	.	.	.	.	.	.	.	.	.	.	.	.	(<8F#/	8F#\	>	(>8a# 8c#/	>	8r	.	.	.	.
.	.	.	.	.	.	.	.	.	.	.	.	2r	.	8F#L 8BB'</	2ryy	.	8g#L 8d#'>/	.	2r	.	.	.	.
.	.	.	.	.	.	.	.	.	.	.	.	.	.	8F# 8BB'</	.	.	8f# 8d#'>/	.	.	.	.	.	.
.	.	.	.	.	.	.	.	.	.	.	.	.	.	8F# 8BB'</	.	.	8e# 8c#'>/	.	.	.	.	.	.
.	.	.	.	.	.	.	.	.	.	.	.	.	.	8F#J 8BB'</)	.	]	8d#J 8B'>/)	]	.	.	.	.	.
=30	=30	=30	=30	=30	=30	=30	=30	=30	=30	=30	=30	=30	=30	=30	=30	=30	=30	=30	=30	=30	=30	=30	=30
*	*	*	*	*	*	*	*	*	*	*	*	*	*	*	*	*	*^	*	*	*	*	*	*
!	!	!	!	!	!	!	!	!	!	!	!	!	!	!	!	!	!LO:TX:a:t=P:problem:niejednoznaczne zakończenie łuku	!	!	!	!	!	!	!
1ryy	1ryy	1ryy	.	1ryy	1ryy	.	1ryy	.	1ryy	1ryy	.	1r	.	(>4F#/	2C#\	.	(>4f# 4c#/	4c#\	.	1ryy	.	1ryy	1ryy	.
!	!	!	!	!	!	!	!	!	!	!	!	!	!	!	!	!LO:DY:b:rj	!	!	!LO:DY:b:rj	!	!	!	!	!
.	.	.	.	.	.	.	.	.	.	.	.	.	.	2An/	.	p	4c#/	4r	p	.	.	.	.	.
.	.	.	.	.	.	.	.	.	.	.	.	.	.	.	4Dn\	.	4cX/	2rB	.	.	.	.	.	.
.	.	.	.	.	.	.	.	.	.	.	.	.	.	4Gn/)	4BB\	.	4B/)	.	.	.	.	.	.	.
*	*	*	*	*	*	*	*	*	*	*	*	*	*	*v	*v	*	*	*	*	*	*	*	*	*
!!LO:LB:g=original
=31	=31	=31	=31	=31	=31	=31	=31	=31	=31	=31	=31	=31	=31	=31	=31	=31	=31	=31	=31	=31	=31	=31	=31
!	!	!	!	!	!	!	!	!	!	!	!	!	!	!LO:TX:i:a:t=Fag.:rj	!	!	!	!LO:DY:b:t=p.:rj	!	!	!	!	!
!	!	!	!	!	!	!	!	!	!	!	!	!	!	!LO:TX:a:t=P:problem:ligatura od 1C# skierowana w dół (złe renderowanie)	!	!	!	!	!	!	!	!	!
1ryy	1ryy	1ryy	.	1ryy	1ryy	.	1ryy	.	1ryy	1ryy	.	1ryy	.	[>1F# [<1C#	.	4A#/	(<1A#	p	1ryy	.	1ryy	1ryy	.
.	.	.	.	.	.	.	.	.	.	.	.	.	.	.	.	4r	.	.	.	.	.	.	.
.	.	.	.	.	.	.	.	.	.	.	.	.	.	.	.	2r	.	.	.	.	.	.	.
=32	=32	=32	=32	=32	=32	=32	=32	=32	=32	=32	=32	=32	=32	=32	=32	=32	=32	=32	=32	=32	=32	=32	=32
*	*	*	*	*	*	*	*	*	*	*	*	*	*	*^	*	*	*	*	*	*	*	*	*
1ryy	1ryy	1ryy	.	1ryy	1ryy	.	1ryy	.	1ryy	1ryy	.	1ryy	.	1F#]	2C#\]	.	1r	2A#\	.	1ryy	.	1ryy	1ryy	.
.	.	.	.	.	.	.	.	.	.	.	.	.	.	.	2D#\	.	.	2B#X\	.	.	.	.	.	.
=33	=33	=33	=33	=33	=33	=33	=33	=33	=33	=33	=33	=33	=33	=33	=33	=33	=33	=33	=33	=33	=33	=33	=33	=33
!	!	!	!	!	!	!	!	!	!	!	!	!	!	!	!	!	!	!	!LO:DY:a	!	!	!	!	!
1ryy	1ryy	1ryy	.	1ryy	1ryy	.	1ryy	.	1ryy	1ryy	.	1ryy	.	4G#/	4E#\	.	1c#	4c#\)	p	1ryy	.	1ryy	1ryy	.
.	.	.	.	.	.	.	.	.	.	.	.	.	.	4B\ 4G#\	4ryy	.	.	4rB	.	.	.	.	.	.
.	.	.	.	.	.	.	.	.	.	.	.	.	.	(>2A#\ [>2F#\	2ryy	.	.	2rc	.	.	.	.	.	.
=34	=34	=34	=34	=34	=34	=34	=34	=34	=34	=34	=34	=34	=34	=34	=34	=34	=34	=34	=34	=34	=34	=34	=34	=34
1ryy	1ryy	1ryy	.	1ryy	1ryy	.	1ryy	.	1ryy	1ryy	.	1ryy	.	1F#_)	1F#	.	(>2.a#/	2.c#\	.	1ryy	.	1ryy	1ryy	.
.	.	.	.	.	.	.	.	.	.	.	.	.	.	.	.	.	8d#/L	4B\	.	.	.	.	.	.
.	.	.	.	.	.	.	.	.	.	.	.	.	.	.	.	.	8e#/J	.	.	.	.	.	.	.
*	*	*	*	*	*	*	*	*	*	*	*	*	*	*	*	*	*v	*v	*	*	*	*	*	*
=35	=35	=35	=35	=35	=35	=35	=35	=35	=35	=35	=35	=35	=35	=35	=35	=35	=35	=35	=35	=35	=35	=35	=35
1ryy	1ryy	1ryy	.	1ryy	1ryy	.	1ryy	.	1r	1r	.	2r	.	8F#/]	8F#\	.	8f# 8A#/)	.	1r	.	1ryy	4r	.
.	.	.	.	.	.	.	.	.	.	.	.	.	.	8r	8ryy	.	8r	.	.	.	.	.	.
!	!	!	!	!	!	!	!	!	!	!	!	!	!	!	!	!	!	!	!	!	!	!	!LO:DY:b
.	.	.	.	.	.	.	.	.	.	.	.	.	.	(<4F# 4FF#/	2.ryy	.	8.a#L 8.f#\	.	.	.	.	(>4aa# 4ff#\	p
.	.	.	.	.	.	.	.	.	.	.	.	.	.	.	.	.	16a#Jk 16f#\	.	.	.	.	.	.
.	.	.	.	.	.	.	.	.	.	.	.	(>2dX^</	.	4Fn 4FFn/	.	.	(>4b 4gX\	.	.	.	.	4bb 4ggn\	.
.	.	.	.	.	.	.	.	.	.	.	.	.	.	4En 4EEn/	.	.	4b#X 4g#\	.	.	.	.	4bb#X 4gg#X\	.
=36	=36	=36	=36	=36	=36	=36	=36	=36	=36	=36	=36	=36	=36	=36	=36	=36	=36	=36	=36	=36	=36	=36	=36
*	*	*	*	*	*	*	*	*	*	*	*	*	*	*	*	*	*	*	*2\right	*	*	*	*
!	!	!	!	!	!	!	!	!	!	!LO:TX:B:b:t=a=:color=red	!	!	!	!	!	!	!	!	!	!	!	!LO:TX:B:a:t=a=:color=red	!
1ryy	1ryy	1ryy	.	1ryy	1ryy	.	1ryy	.	1r	1r	.	8c#/)	.	8AAn/)	8AAn\	.	8cc# 8a\)	.	4r	.	1ryy	8ccc# 8aan\)	.
.	.	.	.	.	.	.	.	.	.	.	.	8r	.	8ryy	8ryy	.	8r	.	.	.	.	8r	.
!	!	!	!	!	!	!	!	!	!	!	!	!	!	!LO:TX:a:t=P:problem:niejednoznaczne zakończenie łuku	!	!LO:HP:b:t=cres	!	!	!	!	!	!LO:TX:a:t=P:problem:niejednoznaczne zakończenie łuku	!LO:HP:b:t=cres.
.	.	.	.	.	.	.	.	.	.	.	.	4r	.	(<4An 4AA/	2.ryy	<	8.cc#L 8.a\	.	8.cc#L 8.an\	.	.	(>4ccc# 4aa\	<
!	!	!	!	!	!	!	!	!	!	!	!	!	!	!	!	!	!	!LO:HP:b:t=cres.	!	!LO:HP:b:t=cres	!	!	!
.	.	.	.	.	.	.	.	.	.	.	.	.	.	.	.	.	16cc#Jk 16a\	<	16cc#Jk 16a\	<	.	.	.
!	!	!	!	!	!	!	!	!	!	!	!	!	!	!	!	!	!LO:TX:a:t=P:problem:niejednoznaczne zakończenie łuku	!	!LO:TX:a:t=P:problem:niejednoznaczne zakończenie łuku	!	!	!	!
.	.	.	.	.	.	.	.	.	.	.	.	(>2fX^</	.	4G# 4GG#/	.	.	(>4dd 4b-X\	.	(>4ddn 4b-X\	.	.	4dddn 4bb-X\	.
.	.	.	.	.	.	.	.	.	.	.	.	.	.	4Gn 4GGn/)	.	.	4dd#X 4b\)	.	4dd#X 4bn\)	.	.	4ddd#X 4bbn\)	.
!!LO:PB:g=original
=37	=37	=37	=37	=37	=37	=37	=37	=37	=37	=37	=37	=37	=37	=37	=37	=37	=37	=37	=37	=37	=37	=37	=37
*	*	*	*	*	*	*	*	*	*	*	*	*^	*	*	*	*	*^	*	*^	*	*	*	*
1ryy	1ryy	1r	.	1ryy	1r	.	1r	.	1r	1r	.	8e/)	4ryy	.	8Cn/	8Cn\	.	8ee 8ccX\	2ryy	.	4ryy	8een 8ccn\	.	1ryy	8eee# 8cccn\	.
.	.	.	.	.	.	.	.	.	.	.	.	8r	.	.	8r	8ryy	.	8r	.	.	.	8r	.	.	8r	.
.	.	.	.	.	.	.	.	.	.	.	.	4ryy	8.gXL 8.e^<\	.	4ryy	(>4cn 4C\	.	8.eeL 8.cc^>\	.	.	8.ggn/L	8.een\L	.	.	8.eee#L 8.ccc\	.
.	.	.	.	.	.	.	.	.	.	.	.	.	16gJk 16e\	.	.	.	.	16eeJk 16cc\	.	.	16gg/Jk	16ee\Jk	.	.	16eee#Jk 16ccc\	.
.	.	.	.	.	.	.	.	.	.	.	.	2g#/	4dX^<\	.	2ryy	4B 4BB\	.	4ee/	4dd^<\	.	2gg#X/	(<4ee\	.	.	(>4eee# 4dddn\	.
.	.	.	.	.	.	.	.	.	.	.	.	.	4d^<\	.	.	4B-X 4BB-X\	.	4ee#X/	4dd^<\	.	.	4ee#X\)	.	.	4eee#X 4ddd\)	.
*	*	*	*	*	*	*	*	*	*	*	*	*	*	*	*v	*v	*	*	*	*	*	*	*	*	*	*
=38	=38	=38	=38	=38	=38	=38	=38	=38	=38	=38	=38	=38	=38	=38	=38	=38	=38	=38	=38	=38	=38	=38	=38	=38	=38
*	*	*	*	*	*^	*	*^	*	*	*^	*	*	*	*	*	*	*	*	*	*	*	*	*	*^	*
*	*	*	*	*	*2\right	*2\right	*	*2\right	*2\right	*	*	*2\right	*2\right	*	*	*	*	*	*	*	*	*	*	*	*	*	*	*	*
!	!	!	!	!	!	!	!LO:DY:b:rj	!	!	!LO:DY:b:rj	!	!	!	!LO:DY:b:rj	!	!	!LO:DY:b:rj	!	!LO:HP:b	!	!	!LO:HP:a	!	!	!	!	!	!	!
!	!	!	!	!	!	!	!LO:HP:b	!	!	!LO:HP:b	!	!	!LO:TX:a:t=P:problem:dwie ligatury	!	!	!	!LO:HP:b	!	!	!	!	!	!	!	!	!	!	!	!
1ryy	1ryy	1r	.	1ryy	(>2AAn/	[<2AAn\	> mf	(>2dn/	(>2.F#\	mf >	1r	[>2A/	[>2A\	mf	2a/	[>2f#\	f >	(>2.An (<2.AAn/)	>	2ff#/	2dd\	>	(>(<2aan\ 2ff#\	2ryy	.	1ryy	(>4fff#/	4fff#\	.
!	!	!	!	!	!	!	!	!	!	!	!	!	!	!	!	!	!	!	!	!	!	!	!	!	!	!	!	!	!LO:HP:b:t=diminuendo.
.	.	.	.	.	.	.	.	.	.	.	.	.	.	.	.	.	.	.	.	.	.	.	.	.	.	.	8.eeen/L	8.eeen\L	>
.	.	.	.	.	.	.	.	.	.	.	.	.	.	.	.	.	.	.	.	.	.	.	.	.	.	.	16dddn/Jk	16dddn\Jk	.
.	.	.	.	.	8C#/)	(>4AA\]	.	8c#/)	.	.	.	8A/]	8A\]	.	(>4c#/	8f#\]	]	.	.	(>4cc# (<4f#/	2ryy	.	8f#/))	8f#\	.	.	4ccc#/	4.ff#\	.
.	.	.	.	.	8r	.	.	8re	.	.	.	8r	8ryy	.	.	8rc	.	.	.	.	.	.	8r	8ryy	.	.	.	.	.
.	.	.	.	.	4r	4GG#\	]	4re	4G#X\	]	.	4r	4ryy	.	8d#/L	4rc	.	4G#X 4GG#X/	]	8b#XL 8d#X/	.	]	4r	4ryy	.	.	8bb#X/L	.	.
.	.	.	.	.	.	.	.	.	.	.	.	.	.	.	8c#/J)	.	.	.	.	8bJ 8e#/))	.	.	.	.	.	.	8bbn/J	8ee#X\	.
*	*	*	*	*	*v	*v	*	*	*	*	*	*v	*v	*	*	*	*	*	*	*	*	*	*v	*v	*	*	*	*	*
*	*	*	*	*	*	*	*v	*v	*	*	*	*	*	*	*	*	*	*	*	*	*	*	*	*	*	*
=39	=39	=39	=39	=39	=39	=39	=39	=39	=39	=39	=39	=39	=39	=39	=39	=39	=39	=39	=39	=39	=39	=39	=39	=39	=39
!	!	!	!	!	!	!	!	!	!	!	!	!	!	!LO:DY:b:rj	!	!LO:DY:b:rj	!	!	!LO:HP:b	!	!	!	!	!	!LO:DY:b:rj
!	!	!	!	!	!	!LO:DY:b:rj	!	!LO:DY:b:rj	!	!	!	!	!	!LO:HP:b	!	!LO:HP:b	!	!	!LO:DY:b:rj	!	!	!	!	!	!LO:HP:b
1ryy	1ryy	1r	.	1ryy	4FF#\)	p	[>2A#X\)	p	1r	1r	.	(>1c#	1re	p <	1F# 1FF#))	p <	(>4.a#/	1f#	p <	1r	.	1ryy	(>4.aa#X/)	1ff#	p <
.	.	.	.	.	4r	.	.	.	.	.	.	.	.	.	.	.	.	.	.	.	.	.	.	.	.
.	.	.	.	.	.	.	.	.	.	.	.	.	.	.	.	.	8b/	.	.	.	.	.	8bb/	.	.
.	.	.	.	.	2r	.	8A#\]	.	.	.	.	.	.	.	.	.	8b#X/L	.	.	.	.	.	8bb#X/L	.	.
!	!	!	!	!	!	!	!	!	!	!	!	!	!	!	!	!	!	!	!	!	!	!	!	!	!LO:HP:b
.	.	.	.	.	.	.	8r	.	.	.	.	.	.	[	.	[	8cc#/	.	.	.	.	.	8ccc#/	.	[ >
!	!	!	!	!	!	!	!	!	!	!	!	!	!	!LO:HP:b	!	!LO:HP:b	!	!	!LO:HP:b	!	!	!	!	!	!
.	.	.	.	.	.	.	4r	.	.	.	.	.	.	>	.	>	8.ee#/	.	[ >	.	.	.	8.eee#/	.	.
!	!	!	!	!	!	!	!	!	!	!	!	!	!	!LO:DY:b	!	!LO:DY:b:t=pp.:color=black	!	!	!LO:DY:b	!	!	!	!	!	!
.	.	.	.	.	.	.	.	.	.	.	.	.	.	] pp	.	] pp	16dd#/Jk)	.	] pp	.	.	.	16ddd#/Jk)	.	]
=40	=40	=40	=40	=40	=40	=40	=40	=40	=40	=40	=40	=40	=40	=40	=40	=40	=40	=40	=40	=40	=40	=40	=40	=40	=40
*	*	*	*	*	*	*	*^	*	*	*	*	*	*	*	*^	*	*	*	*	*	*	*	*	*	*
!	!	!	!	!	!	!	!	!	!	!	!	!	!	!	!	!	!	!	!	!	!	!	!	!	!	!	!LO:DY:b:t=pp.:rj
1ryy	1ryy	1r	.	1ryy	1r	.	1r	8ryy	.	1r	1r	.	2d#/)	1B	.	(>[>2G#/	2GG#/	]	(>4dd#/	2f#\	.	1r	.	1ryy	(>4ddd#/	2ff#\	pp
.	.	.	.	.	.	.	.	8ryy	.	.	.	.	.	.	.	.	.	.	.	.	.	.	.	.	.	.	.
.	.	.	.	.	.	.	.	4ryy	.	.	.	.	.	.	.	.	.	.	8cc#/L)	.	.	.	.	.	8ccc#/L)	.	.
.	.	.	.	.	.	.	.	.	.	.	.	.	.	.	.	.	.	.	8b/J	.	.	.	.	.	8bb/J	.	.
.	.	.	.	.	.	.	.	2ryy	.	.	.	.	(>2c#/	.	.	(>4G#/]	2C#\	.	(>4b/	2e#\	.	.	.	.	(>4bb/	2cc#\	.
.	.	.	.	.	.	.	.	.	.	.	.	.	.	.	.	4C#/)	.	.	8a#/L)	.	.	.	.	.	8aa#/L)	.	.
!	!	!	!	!	!LO:TX:B:a:t==B:color=red	!	!	!	!	!	!	!	!	!	!	!	!	!	!	!	!	!LO:TX:B:a:t==B:color=red	!	!	!	!	!
.	.	.	.	.	.	.	.	.	.	.	.	.	.	.	.	.	.	.	8g#/J	.	.	.	.	.	8gg#/J	.	.
*	*	*	*	*	*	*	*v	*v	*	*	*	*	*	*	*	*v	*v	*	*	*	*	*	*	*	*	*	*
!!LO:LB:g=original
=41	=41	=41	=41	=41	=41	=41	=41	=41	=41	=41	=41	=41	=41	=41	=41	=41	=41	=41	=41	=41	=41	=41	=41	=41	=41
!	!	!	!	!	!	!	!	!	!	!	!	!	!	!	!LO:TX:a:t=P:problem:brak zakończenia łuku	!	!	!	!	!	!	!	!	!	!
1ryy	1ryy	1ryy	.	1ryy	1ryy	.	1ryy	.	1ryy	1ryy	.	1c#)	1A#X	.	1F# 1C#)	.	4f#/	4f#\	.	1ryy	.	1ryy	4ff#/	4ff#\	.
.	.	.	.	.	.	.	.	.	.	.	.	.	.	.	.	.	4r	4ryy	.	.	.	.	4r	4ryy	.
.	.	.	.	.	.	.	.	.	.	.	.	.	.	.	.	.	2r	2ryy	.	.	.	.	2r	2ryy	.
*	*	*	*	*	*	*	*	*	*	*	*	*	*	*	*	*	*v	*v	*	*	*	*	*v	*v	*
=42	=42	=42	=42	=42	=42	=42	=42	=42	=42	=42	=42	=42	=42	=42	=42	=42	=42	=42	=42	=42	=42	=42	=42
*	*	*	*	*	*	*	*	*	*	*	*	*	*	*	*^	*	*	*	*	*	*	*	*
1ryy	1ryy	1ryy	.	1ryy	1ryy	.	1ryy	.	1ryy	1ryy	.	1f#	2F#\	.	2A#/	1D#	.	1ryy	.	1ryy	.	1ryy	1ryy	.
.	.	.	.	.	.	.	.	.	.	.	.	.	2G#\	.	2B#X/	.	.	.	.	.	.	.	.	.
=43	=43	=43	=43	=43	=43	=43	=43	=43	=43	=43	=43	=43	=43	=43	=43	=43	=43	=43	=43	=43	=43	=43	=43	=43
1ryy	1ryy	1ryy	.	1ryy	1ryy	.	1ryy	.	1ryy	1ryy	.	2e#X/	4G#\	.	1c#	1C#	.	1r	.	1ryy	.	1ryy	1ryy	.
.	.	.	.	.	.	.	.	.	.	.	.	.	4B\	.	.	.	.	.	.	.	.	.	.	.
.	.	.	.	.	.	.	.	.	.	.	.	[>2f#/	[<2A#X\	.	.	.	.	.	.	.	.	.	.	.
=44	=44	=44	=44	=44	=44	=44	=44	=44	=44	=44	=44	=44	=44	=44	=44	=44	=44	=44	=44	=44	=44	=44	=44	=44
*	*	*	*	*	*	*	*	*	*	*	*	*	*	*	*	*	*	*^	*	*	*	*	*	*
!	!	!	!	!	!	!	!	!	!	!	!	!	!	!	!	!	!	!	!	!LO:DY:b:rj	!	!	!	!	!
1ryy	1ryy	1ryy	.	1ryy	1ryy	.	1ryy	.	1ryy	1ryy	.	4f#/]	4A#\]	.	(>2.F#/	1C#	.	(>2.a#/	[<2.c#\	p	1r	.	1ryy	1r	.
.	.	.	.	.	.	.	.	.	.	.	.	4r	4ryy	.	.	.	.	.	.	.	.	.	.	.	.
.	.	.	.	.	.	.	.	.	.	.	.	2r	2ryy	.	.	.	.	.	.	.	.	.	.	.	.
.	.	.	.	.	.	.	.	.	.	.	.	.	.	.	8A#/L	.	.	8f#/L	8c#\L]	.	.	.	.	.	.
.	.	.	.	.	.	.	.	.	.	.	.	.	.	.	8B/J	.	.	8g#/J	8e#\J	.	.	.	.	.	.
=45	=45	=45	=45	=45	=45	=45	=45	=45	=45	=45	=45	=45	=45	=45	=45	=45	=45	=45	=45	=45	=45	=45	=45	=45	=45
1ryy	1ryy	1r	.	1ryy	1r	.	1r	.	1r	1r	.	2r	1re	.	8c#/)	8F#\	.	8a#/)	8f#\	.	1r	.	1ryy	4r	.
!	!	!	!	!	!	!	!	!	!	!	!	!	!	!	!	!	!LO:DY:b	!	!	!	!	!	!	!	!
.	.	.	.	.	.	.	.	.	.	.	.	.	.	.	8r	8ryy	p	8ryy	8r	.	.	.	.	.	.
!	!	!	!	!	!	!	!	!	!	!	!	!	!	!	!	!	!	!	!	!LO:DY:a	!	!	!	!	!LO:DY:b:rj
.	.	.	.	.	.	.	.	.	.	.	.	.	.	.	(<4F# 4FF#/	2.ryy	.	2.ryy	8.a#L 8.f#\	p	.	.	.	(>4aa# 4ff#\	p
.	.	.	.	.	.	.	.	.	.	.	.	.	.	.	.	.	.	.	16a#Jk 16f#\	.	.	.	.	.	.
!	!	!	!	!	!	!	!	!	!	!	!	!	!	!LO:DY:b	!	!	!	!	!	!	!	!	!	!	!
.	.	.	.	.	.	.	.	.	.	.	.	(<2dX/	.	p	4Fn 4FFn/	.	.	.	(>4b 4gX\	.	.	.	.	4bb 4ggn\	.
.	.	.	.	.	.	.	.	.	.	.	.	.	.	.	4E# 4EE#/)	.	.	.	4b#X 4g#\	.	.	.	.	4bb#X 4gg#X\)	.
*	*	*	*	*	*	*	*	*	*	*	*	*v	*v	*	*	*	*	*v	*v	*	*	*	*	*	*
=46	=46	=46	=46	=46	=46	=46	=46	=46	=46	=46	=46	=46	=46	=46	=46	=46	=46	=46	=46	=46	=46	=46	=46
!	!	!	!	!	!	!	!	!	!	!	!	!	!	!	!	!	!	!	!	!	!	!LO:TX:B:b:t=come sopra A = B.:note:"A = B." podkreślone czerwoną kredką	!
*	*	*	*	*	*	*	*	*	*	*	*	*	*	*	*	*	*	*	*2\right	*	*	*	*
1ryy	1ryy	1ryy	.	1ryy	1ryy	.	1ryy	.	1ryy	1ryy	.	8c#/)yy	.	8AAn/)yy	8AAn\yy	.	8cc#yy 8a\)yy	.	4ryy	.	1ryy	8ccc#yy 8aan\)yy	.
.	.	.	.	.	.	.	.	.	.	.	.	8ryy	.	8ryy	8ryy	.	8ryy	.	.	.	.	8ryy	.
!	!	!	!	!	!	!	!	!	!	!	!	!	!	!LO:TX:a:t=P:problem:niejednoznaczne zakończenie łuku	!	!LO:HP:b:t=cres	!	!	!	!	!	!LO:TX:a:t=P:problem:niejednoznaczne zakończenie łuku	!LO:HP:b:t=cres.
.	.	.	.	.	.	.	.	.	.	.	.	4ryy	.	(<4Anyy 4AA/yy	2.ryy	<	8.cc#yyL 8.a\yy	.	8.cc#Lyy 8.an\yy	.	.	(>4ccc#yy 4aa\yy	<
!	!	!	!	!	!	!	!	!	!	!	!	!	!	!	!	!	!	!LO:HP:b:t=cres.	!	!LO:HP:b:t=cres	!	!	!
.	.	.	.	.	.	.	.	.	.	.	.	.	.	.	.	.	16cc#Jkyy 16a\yy	<	16cc#Jkyy 16a\yy	<	.	.	.
!	!	!	!	!	!	!	!	!	!	!	!	!	!	!	!	!	!LO:TX:a:t=P:problem:niejednoznaczne zakończenie łuku	!	!LO:TX:a:t=P:problem:niejednoznaczne zakończenie łuku	!	!	!	!
.	.	.	.	.	.	.	.	.	.	.	.	(>2fX^</yy	.	4G#yy 4GG#/yy	.	.	(>4ddyy 4b-X\yy	.	(>4ddnyy 4b-X\yy	.	.	4dddnyy 4bb-X\yy	.
.	.	.	.	.	.	.	.	.	.	.	.	.	.	4Gnyy 4GGn/)yy	.	.	4dd#Xyy 4b\)yy	.	4dd#Xyy 4bn\)yy	.	.	4ddd#Xyy 4bbn\)yy	.
=47	=47	=47	=47	=47	=47	=47	=47	=47	=47	=47	=47	=47	=47	=47	=47	=47	=47	=47	=47	=47	=47	=47	=47
*	*	*	*	*	*	*	*	*	*	*	*	*^	*	*	*	*	*^	*	*^	*	*	*	*
1ryy	1ryy	1ryy	.	1ryy	1ryy	.	1ryy	.	1ryy	1ryy	.	8e/)yy	4ryy	.	8Cn/yy	8Cn\yy	.	8eeyy 8ccX\yy	2ryy	.	4ryy	8eenyy 8ccn\yy	.	1ryy	8eee#yy 8cccn\yy	.
.	.	.	.	.	.	.	.	.	.	.	.	8ryy	.	.	8ryy	8ryy	.	8ryy	.	.	.	8ryy	.	.	8ryy	.
.	.	.	.	.	.	.	.	.	.	.	.	4ryy	8.gXLyy 8.e^<\yy	.	4ryy	(>4cnyy 4C\yy	.	8.eeLyy 8.cc^>\yy	.	.	8.ggn/Lyy	8.een\Lyy	.	.	8.eee#Lyy 8.ccc\yy	.
.	.	.	.	.	.	.	.	.	.	.	.	.	16gJkyy 16e\yy	.	.	.	.	16eeJkyy 16cc\yy	.	.	16gg/Jkyy	16ee\Jkyy	.	.	16eee#Jkyy 16ccc\yy	.
.	.	.	.	.	.	.	.	.	.	.	.	2g#/yy	4dX^<\yy	.	2ryy	4Byy 4BB\yy	.	4ee/yy	4dd^<\yy	.	2gg#X/yy	(<4ee\yy	.	.	(>4eee#yy 4dddn\yy	.
.	.	.	.	.	.	.	.	.	.	.	.	.	4d^<\yy	.	.	4B-Xyy 4BB-X\yy	.	4ee#X/yy	4dd^<\yy	.	.	4ee#X\)yy	.	.	4eee#Xyy 4ddd\)yy	.
*	*	*	*	*	*	*	*	*	*	*	*	*	*	*	*v	*v	*	*	*	*	*	*	*	*	*	*
=48	=48	=48	=48	=48	=48	=48	=48	=48	=48	=48	=48	=48	=48	=48	=48	=48	=48	=48	=48	=48	=48	=48	=48	=48	=48
*	*	*	*	*	*^	*	*^	*	*	*^	*	*	*	*	*	*	*	*	*	*	*	*	*	*^	*
*	*	*	*	*	*2\right	*2\right	*	*2\right	*2\right	*	*	*2\right	*2\right	*	*	*	*	*	*	*	*	*	*	*	*	*	*	*	*
!	!	!	!	!	!	!	!LO:DY:b:rj	!	!	!LO:DY:b:rj	!	!	!	!LO:DY:b:rj	!	!	!LO:DY:b:rj	!	!LO:HP:b	!	!	!LO:HP:a	!	!	!	!	!	!	!
!	!	!	!	!	!	!	!LO:HP:b	!	!	!LO:HP:b	!	!	!LO:TX:a:t=P:problem:dwie ligatury	!	!	!	!LO:HP:b	!	!	!	!	!	!	!	!	!	!	!	!
1ryy	1ryy	1ryy	.	1ryy	(>2AAn/yy	[<2AAn\yy	> mf	(>2dn/yy	(>2.F#\yy	mf >	1ryy	[>2A/yy	[>2A\yy	mf	2a/yy	[>2f#\yy	f >	(>2.Anyy (<2.AAn/)yy	>	2ff#/yy	2dd\yy	>	(>(<2aan\yy 2ff#\yy	2ryy	.	1ryy	(>4fff#/yy	4fff#\yy	.
!	!	!	!	!	!	!	!	!	!	!	!	!	!	!	!	!	!	!	!	!	!	!	!	!	!	!	!	!	!LO:HP:b:t=diminuendo.
.	.	.	.	.	.	.	.	.	.	.	.	.	.	.	.	.	.	.	.	.	.	.	.	.	.	.	8.eeen/Lyy	8.eeen\Lyy	>
.	.	.	.	.	.	.	.	.	.	.	.	.	.	.	.	.	.	.	.	.	.	.	.	.	.	.	16dddn/Jkyy	16dddn\Jkyy	.
.	.	.	.	.	8C#/)yy	(>4AA\]yy	.	8c#/)yy	.	.	.	8A/]yy	8A\]yy	.	(>4c#/yy	8f#\]yy	]	.	.	(>4cc#yy (<4f#/yy	2ryy	.	8f#/))yy	8f#\yy	.	.	4ccc#/yy	4.ff#\yy	.
.	.	.	.	.	8ryy	.	.	8reyy	.	.	.	8ryy	8ryy	.	.	8rcyy	.	.	.	.	.	.	8ryy	8ryy	.	.	.	.	.
.	.	.	.	.	4ryy	4GG#\yy	]	4reyy	4G#X\yy	]	.	4ryy	4ryy	.	8d#/Lyy	4rcyy	.	4G#Xyy 4GG#X/yy	]	8b#XLyy 8d#X/yy	.	]	4ryy	4ryy	.	.	8bb#X/Lyy	.	.
.	.	.	.	.	.	.	.	.	.	.	.	.	.	.	8c#/J)yy	.	.	.	.	8bJyy 8e#/))yy	.	.	.	.	.	.	8bbn/Jyy	8ee#X\yy	.
*	*	*	*	*	*v	*v	*	*	*	*	*	*v	*v	*	*	*	*	*	*	*	*	*	*v	*v	*	*	*	*	*
*	*	*	*	*	*	*	*v	*v	*	*	*	*	*	*	*	*	*	*	*	*	*	*	*	*	*	*
=49	=49	=49	=49	=49	=49	=49	=49	=49	=49	=49	=49	=49	=49	=49	=49	=49	=49	=49	=49	=49	=49	=49	=49	=49	=49
!	!	!	!	!	!	!	!	!	!	!	!	!	!	!LO:DY:b:rj	!	!LO:DY:b:rj	!	!	!LO:HP:b	!	!	!	!	!	!LO:DY:b:rj
!	!	!	!	!	!	!LO:DY:b:rj	!	!LO:DY:b:rj	!	!	!	!	!	!LO:HP:b	!	!LO:HP:b	!	!	!LO:DY:b:rj	!	!	!	!	!	!LO:HP:b
1ryy	1ryy	1ryy	.	1ryy	4FF#\)yy	p	[>2A#X\)yy	p	1ryy	1ryy	.	(>1c#yy	1reyy	p <	1F#yy 1FF#))yy	p <	(>4.a#/yy	1f#yy	p <	1ryy	.	1ryy	(>4.aa#X/)yy	1ff#yy	p <
.	.	.	.	.	4ryy	.	.	.	.	.	.	.	.	.	.	.	.	.	.	.	.	.	.	.	.
.	.	.	.	.	.	.	.	.	.	.	.	.	.	.	.	.	8b/yy	.	.	.	.	.	8bb/yy	.	.
.	.	.	.	.	2ryy	.	8A#\]yy	.	.	.	.	.	.	.	.	.	8b#X/Lyy	.	.	.	.	.	8bb#X/Lyy	.	.
!	!	!	!	!	!	!	!	!	!	!	!	!	!	!	!	!	!	!	!	!	!	!	!	!	!LO:HP:b
.	.	.	.	.	.	.	8ryy	.	.	.	.	.	.	[	.	[	8cc#/yy	.	.	.	.	.	8ccc#/yy	.	[ >
!	!	!	!	!	!	!	!	!	!	!	!	!	!	!LO:HP:b	!	!LO:HP:b	!	!	!LO:HP:b	!	!	!	!	!	!
.	.	.	.	.	.	.	4ryy	.	.	.	.	.	.	>	.	>	8.ee#/yy	.	[ >	.	.	.	8.eee#/yy	.	.
!	!	!	!	!	!	!	!	!	!	!	!	!	!	!LO:DY:b	!	!LO:DY:b:t=pp.:color=black	!	!	!LO:DY:b	!	!	!	!	!	!
.	.	.	.	.	.	.	.	.	.	.	.	.	.	] pp	.	] pp	16dd#/Jk)yy	.	] pp	.	.	.	16ddd#/Jk)yy	.	]
=50	=50	=50	=50	=50	=50	=50	=50	=50	=50	=50	=50	=50	=50	=50	=50	=50	=50	=50	=50	=50	=50	=50	=50	=50	=50
*	*	*	*	*	*	*	*	*	*	*	*	*	*	*	*^	*	*	*	*	*	*	*	*	*	*
!	!	!	!	!	!	!	!	!	!	!	!	!	!	!	!	!	!	!	!	!	!	!	!	!	!	!LO:DY:b:t=pp.:rj
1ryy	1ryy	1ryy	.	1ryy	1ryy	.	1ryy	.	1ryy	1ryy	.	2d#/)yy	1Byy	.	(>[>2G#/yy	2GG#/yy	]	(>4dd#/yy	2f#\yy	.	1ryy	.	1ryy	(>4ddd#/yy	2ff#\yy	pp
.	.	.	.	.	.	.	.	.	.	.	.	.	.	.	.	.	.	.	.	.	.	.	.	.	.	.
.	.	.	.	.	.	.	.	.	.	.	.	.	.	.	.	.	.	8cc#/L)yy	.	.	.	.	.	8ccc#/L)yy	.	.
.	.	.	.	.	.	.	.	.	.	.	.	.	.	.	.	.	.	8b/Jyy	.	.	.	.	.	8bb/Jyy	.	.
.	.	.	.	.	.	.	.	.	.	.	.	(>2c#/yy	.	.	(>4G#/]yy	2C#\yy	.	(>4b/yy	2e#\yy	.	.	.	.	(>4bb/yy	2cc#\yy	.
.	.	.	.	.	.	.	.	.	.	.	.	.	.	.	4C#/)yy	.	.	8a#/L)yy	.	.	.	.	.	8aa#/L)yy	.	.
.	.	.	.	.	.	.	.	.	.	.	.	.	.	.	.	.	.	8g#/Jyy	.	.	.	.	.	8gg#/Jyy	.	.
*	*	*	*	*	*	*	*	*	*	*	*	*v	*v	*	*	*	*	*	*	*	*	*	*	*	*	*
!!LO:PB:g=original
=51	=51	=51	=51	=51	=51	=51	=51	=51	=51	=51	=51	=51	=51	=51	=51	=51	=51	=51	=51	=51	=51	=51	=51	=51	=51
*	*	*	*	*	*^	*	*	*	*	*	*	*	*	*	*	*	*	*	*	*	*	*	*	*	*
!	!	!	!LO:DY:b:t=p.:rj	!	!	!	!LO:DY:b:t=pp.:rj	!	!	!	!	!	!	!	!	!	!	!	!	!	!	!	!	!	!	!
1ryy	1ryy	1C#Xtt>	p	1ryy	1r	1FF#	pp	8r	.	1r	1r	.	4c# 4A#X/	.	4F#/	4F#\	.	8f#/	8f#\	.	1r	.	1ryy	4ff#/	4ff#\	.
!	!	!	!	!	!	!	!	!	!LO:DY:a:rj	!	!	!	!	!	!	!	!	!	!	!	!	!	!	!	!	!
.	.	.	.	.	.	.	.	8A#|<L 8C#/	p	.	.	.	.	.	.	.	.	(>8c#/L	8r	.	.	.	.	.	.	.
.	.	.	.	.	.	.	.	8A#|< 8C#/	.	.	.	.	4r	.	4r	4ryy	.	8d#/)	4r	.	.	.	.	4r	4ryy	.
.	.	.	.	.	.	.	.	8A#|<J 8C#/	.	.	.	.	.	.	.	.	.	8e#/J	.	.	.	.	.	.	.	.
*	*	*	*	*	*	*	*	*tremolo	*	*	*	*	*	*	*	*	*	*	*	*	*	*	*	*	*	*
!	!	!	!	!	!	!	!	!LO:TX:b:t=P:problem:4 kreski pod nutą	!	!	!	!	!	!	!	!	!	!	!	!	!	!	!	!	!	!
.	.	.	.	.	.	.	.	8A#L|< 8C#/	.	.	.	.	2r	.	2r	2ryy	.	8f#/L	2rd	.	.	.	.	2r	2ryy	.
.	.	.	.	.	.	.	.	8A#|< 8C#/	.	.	.	.	.	.	.	.	.	8g#/	.	.	.	.	.	.	.	.
!	!	!LO:TX:b:t=cres.-cen-do.:dur=4h:ext=ud:problem:text with extention lines	!	!	!	!	!	!	!	!	!	!	!	!	!	!	!	!	!	!	!	!	!	!	!	!
.	.	.	.	.	.	.	.	8A#|< 8C#/	.	.	.	.	.	.	.	.	.	8a#/	.	.	.	.	.	.	.	.
.	.	.	.	.	.	.	.	8A#J|< 8C#/	.	.	.	.	.	.	.	.	.	8b/J	.	.	.	.	.	.	.	.
*	*	*	*	*	*	*	*	*	*	*	*	*	*	*	*v	*v	*	*	*	*	*	*	*	*v	*v	*
=52	=52	=52	=52	=52	=52	=52	=52	=52	=52	=52	=52	=52	=52	=52	=52	=52	=52	=52	=52	=52	=52	=52	=52	=52
*	*	*	*	*	*	*	*	*	*	*	*	*	*	*	*	*	*	*	*	*^	*	*	*	*
*	*	*rep	*	*	*	*	*	*	*	*	*	*	*	*	*	*	*	*	*	*	*	*	*	*	*
!	!	!	!	!	!	!	!LO:DY:b:t=p.:rj	!	!	!	!	!LO:DY:b:rj	!	!	!	!	!	!	!	!	!	!	!	!	!
1ryy	1ryy	1C#Xttt>	.	1ryy	1r	1FF#	p	8A#L 8C#/	.	1r	8r	p	1r	.	1r	.	8cc#/	1r	.	8r	1rg	.	1ryy	1r	.
*	*	*	*	*	*	*	*	*	*	*	*tremolo	*	*	*	*	*	*	*	*	*	*	*	*	*	*
.	.	.	.	.	.	.	.	8A# 8C#/	.	.	8f#XL 8F#X/	.	.	.	.	.	8a#|>/L	.	.	8a#|>/L	.	.	.	.	.
.	.	.	.	.	.	.	.	8A# 8C#/	.	.	8f# 8F#/	.	.	.	.	.	8b|>/	.	.	8b|>/	.	.	.	.	.
.	.	.	.	.	.	.	.	8A# 8C#/	.	.	8f#J 8F#/	.	.	.	.	.	8cc#|>/J	.	.	8cc#|>/J	.	.	.	.	.
!	!	!	!	!	!	!	!	!LO:TX:b:t=cres-cen-do:dur=4h:ext=ud:problem:text with extention lines	!	!	!LO:TX:b:t=cres.-cen-do.:dur=4h:ext=ud:problem:text with extention lines	!	!	!	!	!	!	!	!	!	!	!	!	!	!
.	.	.	.	.	.	.	.	8A# 8C#/	.	.	8f#L 8F#/	.	.	.	.	.	8dd#|>/L	.	.	8dd#|>/L	.	.	.	.	.
.	.	.	.	.	.	.	.	8A# 8C#/	.	.	8f# 8F#/	.	.	.	.	.	8ee#|>/	.	.	8ee#|>/	.	.	.	.	.
.	.	.	.	.	.	.	.	8A# 8C#/	.	.	8f# 8F#/	.	.	.	.	.	8ff#|>/	.	.	8ff#|>/	.	.	.	.	.
.	.	.	.	.	.	.	.	8A#J 8C#/	.	.	8f#J 8F#/	.	.	.	.	.	8gg#|>/J	.	.	8gg#/J	.	.	.	.	.
*	*	*Xrep	*	*	*	*	*	*	*	*	*	*	*	*	*	*	*	*	*	*	*	*	*	*	*
=53	=53	=53	=53	=53	=53	=53	=53	=53	=53	=53	=53	=53	=53	=53	=53	=53	=53	=53	=53	=53	=53	=53	=53	=53	=53
*	*	*	*	*	*	*	*	*	*	*	*	*	*	*	*	*	*	*	*	*	*	*	*	*^	*
*	*	*rep	*	*	*	*	*	*	*	*	*	*	*	*	*	*	*	*	*	*	*	*	*	*	*	*
!	!	!	!	!	!	!	!LO:DY:b:rj	!	!	!	!	!	!	!	!	!	!	!	!	!	!	!	!	!	!	!
1ryy	1ryy	1C#Xttt>	.	1ryy	1r	1FF#	mf	8A#L 8C#/	.	1r	8f#XL 8F#X/	.	1r	.	1r	.	8aa#/	8r	.	8aa#/	8r	.	1ryy	8r	8ryy	.
!	!	!	!	!	!	!	!	!	!	!	!	!	!	!	!	!	!	!	!	!	!	!LO:HP:b:t=crescendo:color=blue	!	!	!	!
.	.	.	.	.	.	.	.	8A# 8C#/	.	.	8f# 8F#/	.	.	.	.	.	8cc#|>L 8a#\	8ryy	.	8cc#|>/L	8a#\L	<	.	8cc#|>/L	8cc#\L	.
.	.	.	.	.	.	.	.	8A# 8C#/	.	.	8f# 8F#/	.	.	.	.	.	8cc#|> 8a#\	4ryy	.	8dd#|>/	8a#\	.	.	8dd#|>/	8dd#\	.
.	.	.	.	.	.	.	.	8A# 8C#/	.	.	8f# 8F#/	.	.	.	.	.	8cc#|>J 8a#\	.	.	8ee#|>/J	8a#\J	.	.	8ee#|>/J	8ee#\J	.
!	!	!	!	!	!	!	!	!	!	!	!	!	!	!	!	!	!	!	!LO:HP:b:t=crescendo:color=blue	!	!	!	!	!	!	!
.	.	.	.	.	.	.	.	8A# 8C#/	.	.	8f# 8F#/	.	.	.	.	.	8cc#L 8a#\	2ryy	<	8ff#|>/L	8a#\L	.	.	8ff#|>/L	8ff#\L	.
.	.	.	.	.	.	.	.	8A# 8C#/	.	.	8f# 8F#/	.	.	.	.	.	8cc# 8a#\	.	.	8gg#|> 8cc#/	8cc#\J	.	.	8gg#|>/	8gg#\	.
.	.	.	.	.	.	.	.	8A# 8C#/	.	.	8f# 8F#/	.	.	.	.	.	8ff# 8cc#\	.	.	8aa#|> 8a#/	4ryy	.	.	8aa#|>/	8aa#\	.
.	.	.	.	.	.	.	.	8A#J 8C#/	.	.	8f#J 8F#/	.	.	.	.	.	8ff#J 8cc#\	.	.	8bbJ|> 8b/	.	.	.	8bb|>/J	8bb\J	.
*	*	*Xrep	*	*	*	*	*	*	*	*	*	*	*	*	*	*	*	*	*	*	*	*	*	*	*	*
*	*	*	*	*	*	*	*	*	*	*	*	*	*	*	*	*	*v	*v	*	*	*	*	*	*	*	*
*	*	*	*	*	*	*	*	*	*	*	*	*	*	*	*	*	*	*	*v	*v	*	*	*	*	*
=54	=54	=54	=54	=54	=54	=54	=54	=54	=54	=54	=54	=54	=54	=54	=54	=54	=54	=54	=54	=54	=54	=54	=54	=54
*	*	*	*	*	*	*	*	*	*	*	*	*	*^	*	*^	*	*	*	*	*	*	*	*	*
*	*	*rep	*	*	*	*	*	*	*	*	*	*	*	*	*	*	*	*	*	*	*	*	*	*	*	*
!	!	!	!	!	!	!	!LO:DY:b:rj	!	!	!	!	!	!	!	!	!	!	!	!	!	!	!	!	!	!	!
1ryy	1ryy	1C#Xttt>	.	1ryy	1r	8FF#/	f	8c#L 8C#/	.	1r	8f#XL 8F#X/	.	2r	2ryy	.	8r	8ryy	.	8ff# 8a#\	.	8aa# 8cc#/	.	1ryy	8ccc#/	8ccc#\	.
.	.	.	.	.	.	8r	.	8c# 8C#/	.	.	8f# 8F#/	.	.	.	.	8F#|>/L	8F#\L	.	8ff#|>L 8a#\	.	8ff#|>L 8a#/	.	.	8ff#|>/L	8ff#\L	.
!	!	!	!	!	!	!	!	!	!	!	!	!	!	!	!	!	!	!LO:HP:b:t=cres:color=blue	!	!	!	!	!	!	!	!
.	.	.	.	.	.	4r	.	8c# 8C#/	.	.	8f# 8F#/	.	.	.	.	8E#|>/	8E#\	<	8gg#|> 8cc#\	.	8ff#|> 8a#/	.	.	8gg#|>/	8gg#\	.
.	.	.	.	.	.	.	.	8c# 8C#/	.	.	8f# 8F#/	.	.	.	.	8D#|>/J	8D#\J	.	8aa#|>J 8cc#\	.	8ff#|>J 8a#/	.	.	8aa#|>/J	8aa#\J	.
*	*	*	*	*	*	*	*	*	*	*	*	*	*	*	*	*	*	*	*tremolo	*	*tremolo	*	*	*	*	*
!	!	!	!	!	!	!	!	!	!	!	!	!	!	!	!	!	!	!	!LO:TX:a:t=P:problem:4 kreski nad nutą	!	!LO:TX:a:t=P:problem:4 kreski nad nutą	!	!	!	!	!
.	.	.	.	.	.	2r	.	8c# 8C#/	.	.	8f# 8F#/	.	4r@	4ryy	.	8C#|>/L	8C#\L	.	8ff#|>L 8cc#\	.	8ff#L 8cc#|>\	.	.	8bb|>/L	8bb\L	.
.	.	.	.	.	.	.	.	8c# 8C#/	.	.	8f# 8F#/	.	.	.	.	8BB|>/	8BB\	.	8ff#|> 8cc#\	.	8ff# 8cc#|>\	.	.	8ccc#|>/	8ccc#\	.
.	.	.	.	.	.	.	.	8c# 8C#/	.	.	8f# 8F#/	.	4f#/@	4f#\@	.	8AA#|>/	8AA#\	.	8ff#|> 8cc#\	.	8ff# 8cc#|>\	.	.	8ddd#|>/	8ddd#\	.
.	.	.	.	.	.	.	.	8c#J 8C#/	.	.	8f#J 8F#/	.	.	.	.	8GG#|>/J	8GG#\J	.	8ff#|>J 8cc#\	.	8ff#J 8cc#|>\	.	.	8eee#|>/J	8eee#\J	.
*	*	*Xrep	*	*	*	*	*	*Xtremolo	*	*	*Xtremolo	*	*	*	*	*	*	*	*Xtremolo	*	*Xtremolo	*	*	*	*	*
*	*	*	*	*	*v	*v	*	*	*	*	*	*	*v	*v	*	*	*	*	*	*	*	*	*	*v	*v	*
!!LO:LB:g=original
=55	=55	=55	=55	=55	=55	=55	=55	=55	=55	=55	=55	=55	=55	=55	=55	=55	=55	=55	=55	=55	=55	=55	=55
*	*	*	*	*	*	*	*	*	*	*^	*	*	*	*	*	*	*	*	*	*	*	*	*
!	!	!	!	!	!	!	!	!	!	!	!	!	!	!	!	!	!LO:DY:b:rj	!	!LO:DY:b:rj	!	!LO:DY:b:rj	!	!	!LO:DY:b:rj
!	!	!	!	!	!	!	!	!	!	!	!	!	!	!	!	!	!	!LO:S:s=1:note:problem:note-level slur	!	!	!	!	!	!
!	!	!	!LO:DY:b:rj	!	!LO:TX:a:t=P:problem:ligatura od 1FF# skierowana w dół	!	!	!	!LO:TX:a:t=P:problem:partia do końca utworu pomazana czerwoną kredką	!	!	!	!	!	!	!	!	!LO:S:s=2:note:problem:note-level slur	!	!	!	!	!	!
1ryy	1ryy	1F#ytt>	ff	1ryy	[>1F# [<1FF#	.	[>1c# [>1A#	.	[>1a#X [>1f#	[>1c#X@	[>1c#@	.	[>1a#X@ [<1f#@	.	[>1FF#	[>1FF#	ff	(>1aa# (>1ff#	ff	[>1aa# [>1cc#	ff	1ryy	2fff#\	ff
.	.	.	.	.	.	.	.	.	.	.	.	.	.	.	.	.	.	.	.	.	.	.	4ddd#\	.
.	.	.	.	.	.	.	.	.	.	.	.	.	.	.	.	.	.	.	.	.	.	.	4ccc#\	.
=56	=56	=56	=56	=56	=56	=56	=56	=56	=56	=56	=56	=56	=56	=56	=56	=56	=56	=56	=56	=56	=56	=56	=56	=56
*	*	*	*	*	*^	*	*	*	*	*	*	*	*	*	*	*	*	*	*	*^	*	*	*	*
*	*	*	*	*	*	*	*	*	*	*	*rep	*rep	*	*rep	*	*rep	*rep	*	*	*	*	*	*	*	*	*
!	!	!	!	!	!	!	!	!	!	!	!	!	!	!	!	!	!	!	!LO:S:s=1:note:problem:note-level slur	!	!	!	!	!	!	!
!	!	!	!	!	!	!	!	!	!	!	!	!	!	!	!	!	!	!	!LO:S:s=2:note:problem:note-level slur	!	!	!	!	!	!	!
1ryy	1ryy	4F#yttt>\	.	1ryy	4F#/]	1FF#]	.	4c#] 4A#\]	.	4a#] 4f#\]	1c#_>	1c#_>	.	1a#_> 1f#_<	.	1FF#]	1FF#]	.	2.cc#/) 2.a#/)	.	4aa#\] 4cc#\]	4ryy	.	1ryy	4aa#\	.
.	.	4r	.	.	4F#/	.	.	4c# 4A#\	.	4a#y 4f#\	.	.	.	.	.	.	.	.	.	.	4ff#/	4ff#\	.	.	4ff#\	.
.	.	2r	.	.	4F#/	.	.	4c# 4A#\	.	4a# 4f#\	.	.	.	.	.	.	.	.	.	.	4dd#/	4dd#\	.	.	4cc#\	.
.	.	.	.	.	4F#/	.	.	4c# 4A#\	.	4a# 4f#\	.	.	.	.	.	.	.	.	4a# 4c#/	.	8cc#/L	8cc#\L	.	.	8cc#\L	.
.	.	.	.	.	.	.	.	.	.	.	.	.	.	.	.	.	.	.	.	.	8a#/J	8a#\J	.	.	8a#\J	.
*	*	*	*	*	*	*	*	*	*	*	*Xrep	*Xrep	*	*Xrep	*	*Xrep	*Xrep	*	*	*	*	*	*	*	*	*
=57	=57	=57	=57	=57	=57	=57	=57	=57	=57	=57	=57	=57	=57	=57	=57	=57	=57	=57	=57	=57	=57	=57	=57	=57	=57	=57
*	*	*	*	*	*	*	*	*	*	*^	*	*	*	*	*	*	*	*	*^	*	*	*	*	*	*^	*
1ryy	1ryy	1r	.	1ryy	4F#/	4FF#\	.	4A# 4C#/	.	4f#/	4f#\	4c#\]	4c#\]	.	4a#] 4f#\]	.	8FF#/	8FF#\	.	8f#/	8f#\	.	8f#/	8f#\	.	1ryy	4f#/	4f#\	.
.	.	.	.	.	.	.	.	.	.	.	.	.	.	.	.	.	8r	8ryy	.	8r	8ryy	.	8r	8ryy	.	.	.	.	.
.	.	.	.	.	4r	4ryy	.	4r	.	4r	4ryy	4r	4ryy	.	4r	.	4F#^^>/	4D#\	.	4f# 4A#^^>/	2.ryy	.	4f#^^>/	4f#\	.	.	4r	4ryy	.
.	.	.	.	.	2r	2ryy	.	2r	.	2r	2ryy	2r	2ryy	.	2r	.	4E#^^>/	4C#\	.	4f# 4A#^^>/	.	.	4e#^^>/	4e#\	.	.	2r	2ryy	.
.	.	.	.	.	.	.	.	.	.	.	.	.	.	.	.	.	4D#^^>/	4BB\	.	4f# 4B^^>/	.	.	4d#^^>/	4d#\	.	.	.	.	.
*	*	*	*	*	*	*	*	*	*	*v	*v	*	*	*	*	*	*	*	*	*	*	*	*	*	*	*	*v	*v	*
*	*	*	*	*	*v	*v	*	*	*	*	*v	*v	*	*	*	*	*	*	*	*	*	*	*	*	*	*	*
=58	=58	=58	=58	=58	=58	=58	=58	=58	=58	=58	=58	=58	=58	=58	=58	=58	=58	=58	=58	=58	=58	=58	=58	=58	=58
1ryy	1ryy	1r	.	1ryy	1r	.	1r	.	1r	1r	.	1r	.	4C#/	4AA#\	.	4c#^^>/	4c#\	.	4c#^^>/	4c#\	.	1ryy	1r	.
.	.	.	.	.	.	.	.	.	.	.	.	.	.	4r	4ryy	.	4r	4ryy	.	4r	4ryy	.	.	.	.
.	.	.	.	.	.	.	.	.	.	.	.	.	.	2BB/	2GG#\	.	2r	2ryy	.	2r	2ryy	.	.	.	.
*	*	*	*	*	*	*	*	*	*	*	*	*	*	*v	*v	*	*	*	*	*v	*v	*	*	*	*
*	*	*	*	*	*	*	*	*	*	*	*	*	*	*	*	*v	*v	*	*	*	*	*	*
=59	=59	=59	=59	=59	=59	=59	=59	=59	=59	=59	=59	=59	=59	=59	=59	=59	=59	=59	=59	=59	=59	=59
*	*	*	*	*	*	*	*	*	*	*	*	*	*	*	*	*	*	*	*	*	*^	*
!	!	!LO:SIC:v:s=1F#	!LO:HP:b	!	!	!LO:DY:b:rj	!	!LO:DY:b:rj	!	!	!	!	!	!	!LO:DY:b:rj	!	!LO:DY:b:rj	!	!	!	!	!	!LO:DY:b:rj
1ryy	1ryy	1FTT<;	>]	1ryy	1F# 1FF#;>	mf	1A# 1C#;>	mf	1r;>	1r;>	.	1r;>	.	1C# 1FF#;>	mf	1A# 1F#;>	mf	1r;>	.	1ryy	1f#;>	1f#	mf
*	*	*	*	*	*	*	*	*	*	*	*	*	*	*	*	*	*	*	*	*	*v	*v	*
==	==	==	==	==	==	==	==	==	==	==	==	==	==	==	==	==	==	==	==	==	==	==
*-	*-	*-	*-	*-	*-	*-	*-	*-	*-	*-	*-	*-	*-	*-	*-	*-	*-	*-	*-	*-	*-	*-
!!!system-decoration: [(s1,s2,s3,s4,s5{s6,s7}s8{s9,s10}s11,s12,s13,s14)]
!!!RDF**kern: | = vertical stroke
!!!RDF**kern: @ = marked note, color=blue
!!!RDF**kern: j = marked note, color=grey
!!!RDF**kern: N = linked
!!!RDF**kern: > = above
!!!RDF**kern: < = below
!!!ENC: Andrzej Gręziak
!!!END: 2021-08-17
!!!ENC: Antoni Szymański
!!!END: 2021-09-24
